X:138
T:Buffalo Gals
C:Traditional American
R:Reel
M:2/2
L:1/4
S:Colin Hume's website,  colinhume.com  - chords can also be printed below the stave.
Q:1/4=200
%%MIDI ratio 3 1
K:G
P:A
|: "G"G/G/B dd/d/ | e/dd/ B2 | "D7"d/cc/ A2 | "G"e/dd/ B2 |\
"G"G/G/B dd/d/ | e/dd/ B>B | "D7"dd/d/ c/B/A | "G"G3 z :|
P:B
|: "C"gf ed/d/ | "G"e/dd/ B2 | "D7"d/cc/ A2 | "G"e/dd/ B2 |\
"C"gf ed/d/ | "G"e/dd/ B>B | "D7"dd/d/ c/B/A | "G"G3 z :|

